!!!OTL: ICH KOMME VOM GEBIRGE HER
!!!ARE: Europa, Mitteleuropa, Deutschland; France, Elsass,Weissenburg
!!!SCT: B0661
!!!YEM: Copyright 1995, estate of Helmut Schaffrath.
**kern
*ICvox
*Ivox
*M3/4
*k[b-e-]
*B-:
{8f
8b-
8f
=1
4.d
8d
8.f
16e-
=2
4.e-}
{8a
8cc
8b-
=3
4.a
8e-
8g
8f
=4
4d
8r}
{8f
8b-
8f
=5
4.dd
8b-
8b-
8g
=6
4.g}
{8b-
8a
8g
=7
4.f
8f
8ee-
8a
=8
4b-
8r}
==
!!!AGN: Moral - Lied, Einsamkeit
!!!ONB: ESAC (Essen Associative Code) Database: BOEHME
!!!AMT: simple triple
!!!AIN: vox
!!!EED: Helmut Schaffrath
!!!EEV: 1.0
*-
